charitable/assets/images/charitable-logo.svg

<svg width="51" height="50" viewBox="0 0 51 50" fill="none" xmlns="http://www.w3.org/2000/svg">
<path d="M50.0541 25C50.0541 38.7987 38.8528 50 25.0541 50C11.2554 50 0 38.7987 0 25C0 11.2013 11.2013 0 25 0C38.7987 0 50.0541 11.2013 50.0541 25Z" fill="#F99E36"/>
<path d="M34.8483 11.9048C32.9544 9.79442 31.0604 8.98273 29.4912 9.52386C29.1665 9.63208 28.8959 9.79442 28.6795 10.0109L24.0799 13.8529L12.1211 23.9178L9.52365 26.0823C8.65785 26.7858 8.33317 28.0304 8.71196 29.0585L9.19897 30.4654L9.68599 31.8723C10.0648 32.9546 11.0929 33.6581 12.2293 33.6581H37.2293C37.554 33.6581 38.2033 33.4957 38.2033 33.4957C39.7726 32.9005 40.6925 31.0607 40.8007 28.2468C40.9089 25.7035 40.3137 22.6191 39.1773 19.5888C38.0951 16.5044 36.5258 13.7987 34.8483 11.9048ZM34.0908 24.2966L32.2509 19.3182C33.6037 18.8312 35.173 19.5347 35.66 20.8875C36.2011 22.2944 35.4436 23.8096 34.0908 24.2966ZM29.2747 10.7143C29.2206 10.7684 29.2206 10.7684 29.1665 10.8226C27.2726 12.3918 27.3267 17.6407 29.3288 23.2143C30.7899 27.1646 32.8462 30.3031 34.8483 31.8182H12.2834C11.9587 31.8182 11.634 31.6018 11.5258 31.2771L11.0388 29.8702L27.8678 23.7555C25.7033 17.9654 26.4068 12.3377 29.2747 10.7143Z" fill="white"/>
<path d="M30.0322 33.4957C29.8699 36.0931 27.7054 37.9329 25.0539 37.987H24.9998C22.3482 37.987 20.1296 36.1472 19.9673 33.4957H21.8612C22.0777 35.0649 23.3764 36.1472 24.9998 36.1472H25.0539C26.6231 36.1472 27.9218 35.0108 28.1383 33.4957" fill="white"/>
</svg>

<svg width="51" height="50" viewBox="0 0 51 50" fill="none" xmlns="http://www.w3.org/2000/svg">
<path d="M50.054 25C50.054 38.799 38.853 50 25.054 50 11.255 50 0 38.799 0 25 0 11.201 11.201 0 25 0 38.799 0 50.054 11.201 50.054 25z" fill="#F99E36"/>
<path d="M34.848 11.905c-1.894-2.11-3.788-2.922-5.357-2.381-.325.108-.596.27-.812.487l-4.6 3.842L12.12 23.918l-2.597 2.164c-.866.704-1.19 1.948-.812 2.976l.487 1.407.487 1.407c.379 1.082 1.407 1.786 2.543 1.786h25c.325 0 .974-.162.974-.162 1.569-.595 2.489-2.435 2.597-5.249.108-2.543-.487-5.627-1.623-8.658-1.082-3.084-2.651-5.79-4.329-7.684zm-.757 12.392l-1.84-4.978c1.353-.487 2.922.216 3.409 1.569.541 1.407-.216 2.922-1.569 3.409zm-4.816-13.582c-.054.054-.054.054-.108.108-1.894 1.569-1.84 6.818.162 12.392 1.461 3.95 3.518 7.088 5.52 8.603H12.283c-.325 0-.65-.216-.758-.541l-.487-1.407 16.829-6.115c-2.164-5.79-1.461-11.417 1.407-13.041z" fill="white"/>
<path d="M30.032 33.496c-.162 2.597-2.327 4.437-4.978 4.491h-.054c-2.651 0-4.87-1.84-5.032-4.491h1.894c.216 1.569 1.515 2.651 3.138 2.651h.054c1.569 0 2.868-.864 3.084-2.651" fill="white"/>
</svg>
